!!!OTL: WAS BLINKT SO FREUNDLICH IN DER FERNE
!!!ARE: Europa, Mitteleuropa, Deutschland, Hessen, Schlesien
!!!SCT: E1367
!!!YEM: Copyright 1995, estate of Helmut Schaffrath.
**kern
*ICvox
*Ivox
*M3/4
*k[f#]
*G:
{8d
=1
8.g
16a
8b
8cc
8dd
8ee
=2
4dd
4dd
8r}
{8dd
=3
8.cc
16b
4a
4dd
=4
8.b
16a
4g
8r}
{8d
=5
8.g
16a
8b
8cc
8dd
8ee
=6
4dd
4dd
8r}
{8dd
=7
8.cc
16b
4a
4dd
=8
8.b
16a
4g
8r}
{8d
=9
8.cc
16cc
4.cc
8dd
=10
8.b
16b
4b
8r}
{8b
=11
8.a
16a
4.a
8f#
=12
8.g
16ee
4dd
8r}
{8d
=13
8.g
16a
8b
8cc
8dd
8ee
=14
2dd}
{4dd
=15
8.cc
16b
4a
4dd
=16
8.b
16a
4g
8r}
==
!!!AGN: Staende -, Soldaten -, Kriegs - Lied, Reservisten
!!!ONB: ESAC (Essen Associative Code) Database: ERK3
!!!AMT: simple triple
!!!AIN: vox
!!!EED: Helmut Schaffrath
!!!EEV: 1.0
*-
